X: 58
T: Jesus, Tender Shepherd, Hear Me
C: words: Claribel
C: music: Mrs. Charles Barnard (Claribel), 1834-1869
%R: air, march
B: "The Everyday Song Book", 1927
F: http://www.library.pitt.edu/happybirthday/pdf/The_Everyday_Song_Book.pdf
Z: 2017 John Chambers <jc:trillian.mit.edu>
M: 4/4
L: 1/4
K: G
% - - - - - - - - - - - - - - -
[| B A G D | F E E D | G G B B | A B A2 |
w: 1.~Je-sus, ten-der Shep-herd, hear me; Bless Thy lit-tle lamb to-night;
w: 2.~All this day Thy hand has led me,   And I thank Thee for Thy care;
%
B A G D | F E E D | G G G F/G/ | B A G2 |]
w: Thro' the dark-ness be Thou near me,     Keep me safe till* morn-ing light.
w: Thou hast clothed me, warmed and fed me, Lis-ten to my* eve-ning pray'r!
% - - - - - - - - - - - - - - -
